X:111
M:C
L:1/8
Q:1/4=100
K:G
c|B/c/d d>e d>ed>c|B/c/d g>a b>de>c|B/c/d d>e d>ed>B|A>GAB g>f e:|
|:d/e/|g>a g/a/b d>edB|g>ab>a g>d e2|1 g>a g/a/b d>ed>B|

